packages/core/src/svgs/networks/mono/energy-web.svg

<svg width="24" height="24" viewBox="0 0 24 24" fill="none" xmlns="http://www.w3.org/2000/svg">
<path d="M12 2C10.0222 2 8.08878 2.58649 6.4443 3.68531C4.79981 4.78412 3.51809 6.3459 2.76121 8.17315C2.00433 10.0004 1.8063 12.0111 2.19215 13.9509C2.578 15.8907 3.53041 17.6726 4.92894 19.0711C6.32746 20.4696 8.10928 21.422 10.0491 21.8079C11.9889 22.1937 13.9996 21.9957 15.8268 21.2388C17.6541 20.4819 19.2159 19.2002 20.3147 17.5557C21.4135 15.9112 22 13.9778 22 12C21.9993 9.34805 20.9455 6.80491 19.0703 4.9297C17.1951 3.05448 14.6519 2.0007 12 2ZM11.5501 16.9279C11.0064 17.3172 10.3562 17.5301 9.68756 17.5378C8.532 17.5378 7.47352 16.9121 6.67078 15.7566C5.9488 14.6517 5.54826 13.3679 5.51391 12.0486C5.51417 12.0237 5.52213 11.9994 5.53669 11.9793C5.55124 11.9591 5.57169 11.9439 5.59523 11.9358L6.38222 11.5829C6.39693 11.5759 6.41295 11.5719 6.42926 11.5714C6.44557 11.5708 6.46182 11.5736 6.47698 11.5797C6.49214 11.5857 6.50588 11.5948 6.51734 11.6065C6.5288 11.6181 6.53773 11.6319 6.54356 11.6472C6.54356 11.6629 6.5593 11.6787 6.5593 11.6944C6.5593 13.0061 6.91213 14.2469 7.53912 15.1624C8.13196 16.0294 8.90323 16.495 9.70594 16.495C10.1403 16.4959 10.5651 16.3672 10.9258 16.1252C10.9522 16.1117 10.9824 16.1076 11.0115 16.1136C11.0406 16.1195 11.0668 16.1352 11.0858 16.1579C11.2458 16.3665 11.4071 16.5593 11.5829 16.7508C11.5936 16.7806 11.5963 16.8127 11.5905 16.8438C11.5847 16.8749 11.5708 16.9039 11.5501 16.9279ZM17.345 15.7566C16.558 16.8964 15.4824 17.5378 14.3282 17.5378C13.1739 17.5378 12.1128 16.8964 11.3114 15.7566C10.5572 14.6653 10.1401 13.2199 10.1401 11.6905C10.1401 10.2791 10.9586 9.17075 11.9856 9.17075C13.0126 9.17075 13.8324 10.2791 13.8324 11.6905C13.8505 12.9208 13.5577 14.1357 12.9811 15.2227C12.9743 15.2368 12.9645 15.2494 12.9526 15.2595C12.9406 15.2697 12.9267 15.2773 12.9117 15.2819C12.8967 15.2864 12.8809 15.2878 12.8653 15.286C12.8497 15.2842 12.8347 15.2792 12.8211 15.2713C12.8053 15.2713 12.8053 15.2542 12.7883 15.2385C12.6926 15.1257 12.5955 15.0142 12.5155 14.9014C12.4193 14.7626 12.3317 14.618 12.2531 14.4685C12.2454 14.4508 12.2414 14.4316 12.2414 14.4121C12.2414 14.3927 12.2454 14.3735 12.2531 14.3557C12.6174 13.509 12.8036 12.5964 12.8001 11.6747C12.8001 10.9848 12.446 10.1978 11.9803 10.1978C11.5147 10.1978 11.1619 10.9848 11.1619 11.6747C11.1619 12.9864 11.5147 14.2272 12.1417 15.1427C12.7358 16.0084 13.5058 16.474 14.3085 16.474C15.1113 16.474 15.8825 15.9927 16.4754 15.1427C17.101 14.2246 17.4551 12.9916 17.4551 11.6747C17.4551 10.3578 17.1036 9.1288 16.4754 8.21065C16.2961 7.9408 16.0797 7.6975 15.8326 7.48795C15.8114 7.4643 15.7983 7.43435 15.7955 7.40265C15.7926 7.371 15.8001 7.3392 15.8169 7.31215C15.8326 7.2951 15.8497 7.2794 15.8654 7.2794L16.6524 6.92655C16.6743 6.91471 16.6998 6.91137 16.7241 6.91718C16.7483 6.92299 16.7695 6.93754 16.7836 6.95803C16.9837 7.16115 17.1667 7.3805 17.3306 7.61385C18.0847 8.70515 18.5018 10.1506 18.5018 11.68C18.5018 13.2094 18.0992 14.6653 17.345 15.7566Z" fill="white"/>
</svg>

<svg xmlns="http://www.w3.org/2000/svg" width="24" height="24" fill="none" viewBox="0 0 24 24">
    <path fill="#fff" d="M12 2a10 10 0 1 0 0 20 10 10 0 0 0 0-20m-.45 14.928a3.26 3.26 0 0 1-1.862.61c-1.156 0-2.214-.626-3.017-1.781a7.1 7.1 0 0 1-1.157-3.708.12.12 0 0 1 .081-.113l.787-.353a.12.12 0 0 1 .162.064c0 .016.015.032.015.047 0 1.312.353 2.553.98 3.468.593.867 1.364 1.333 2.167 1.333.434 0 .86-.128 1.22-.37a.13.13 0 0 1 .16.033c.16.208.321.401.497.593a.18.18 0 0 1-.033.177m5.795-1.171c-.787 1.14-1.863 1.78-3.017 1.78s-2.215-.64-3.017-1.78c-.754-1.092-1.17-2.537-1.17-4.066 0-1.412.818-2.52 1.845-2.52s1.846 1.108 1.846 2.52a7.3 7.3 0 0 1-.85 3.532.11.11 0 0 1-.07.059.12.12 0 0 1-.09-.01c-.017 0-.017-.018-.034-.034-.095-.112-.193-.224-.273-.337a4 4 0 0 1-.262-.432.14.14 0 0 1 0-.113c.364-.847.55-1.76.547-2.681 0-.69-.354-1.477-.82-1.477s-.818.787-.818 1.477c0 1.311.353 2.552.98 3.468.594.865 1.364 1.331 2.167 1.331s1.574-.481 2.166-1.331c.626-.918.98-2.151.98-3.468s-.351-2.546-.98-3.464a3.5 3.5 0 0 0-.642-.723.15.15 0 0 1-.016-.176c.016-.017.033-.033.048-.033l.787-.352a.1.1 0 0 1 .132.031q.3.305.547.656c.754 1.091 1.17 2.537 1.17 4.066 0 1.53-.402 2.985-1.156 4.077"/>
</svg>
